X: 70
T: Scotland the Brave
M: 4/4
K: G
L: 1/8
|: "G" G2 G>A BGBd | g2 g>a gdBG | "C" c>d ec "G" BdBG | "A" A2 d>e "D" dcBA |
   "G" G2 G>A BGBd | g2 g>a gdBG | "C" c>d ec "G" BdBG |1 "D" A2 GF "G" G2 D2 :|2 "D" A2 GF "G" G2 d/e/f/g/||
|: "D" a2 a>b afdf | "G" g>ab>a ge d2 | g2 bg "D" f2 af | "A" egfe "D" dcBG |
   "G" G2 G>A BGBd | g2 g>a gdBG | "C" c>d ec "G" BdBG |1 "D" A2 GF "G" G2 d/e/f/g/ :|2 "D" A2 GF "G" G4 |]

